!!!!SEGMENT: pl-gd--ee-1638--008-003_marenzio-luca--il-quarto-libro-de-madrigalia-a-sei-voci-sonar-le-labra.krn
!!!cenid: 15xx:865
!!!COM: Marenzio, Luca
!!!COM-rismID: pe30003955
!!!CDT: ~1553-1599/08/22
!!!CNT: Italian
!!!GTL: Il Quarto Libro de madrigalia a sei voci
!!!OTL: Sonar le labra
!!!OMV: 003
!!!PDT: 1587
!!!AGN:
!!!SMS-siglum: PL-GD
!!!SMS-shelfmark: Ee 1638
!!!SMS-variant:
!!!SMS-altvar:
!!!SMS-shelfwork: 008-003 G
!!!NIFC-rismSourceID: 990039254
!!!NIFC-islandoraID: pl-gd:57883
!!!URL-pdf-islandora: https://repozytorium.nifc.pl/islandora/object/pl-gd%3A57883/datastream/PDF/view
!!!URL-scan: https://polish.musicsources.pl/pl/lokalizacje/galeria/klocki-introligatorskie/655 @EN{Scan on Polish Music Sources Website} @PL{Skany w portalu Dziedzictwo Muzyki Polskiej w otwartym dostępie}
!!!ONB-nifc: UWAGA: zbiór na stronach: Canto: s. 706-716, Alto: s. 554-564, Tenore: s. 402-412, Basso: s.250-260, Quinto: s. 98-108, Sesto: s. 16-26. Uwaga: utwory podzielone wg tytułów w spisach treści dostępnych na końcu każdej księgi głosowej.
!!!AIN: 1 alto 1 bass 1 soprn 1 tenor 2 vox
!!!key: d
**kern	**text	**kern	**text	**kern	**text	**kern	**text	**kern	**text	**kern	**text
*part6	*part6	*part5	*part5	*part4	*part4	*part3	*part3	*part2	*part2	*part1	*part1
*staff6	*staff6	*staff5	*staff5	*staff4	*staff4	*staff3	*staff3	*staff2	*staff2	*staff1	*staff1
*I"SESTO	*	*I"QVINTO	*	*I"BASSO	*	*I"TENORE	*	*I"ALTO	*	*I"CANTO	*
*I'V II	*	*I'V I	*	*I'B	*	*I'T	*	*I'A	*	*I'S	*
*ICvox	*	*ICvox	*	*ICvox	*	*ICvox	*	*ICvox	*	*ICvox	*
*Ivox	*	*Ivox	*	*Ibass	*	*Itenor	*	*Ialto	*	*Isoprn	*
*clefC3	*	*clefG2	*	*clefF3	*	*clefC3	*	*clefC2	*	*clefG2	*
*k[b-]	*	*k[b-]	*	*k[b-]	*	*k[b-]	*	*k[b-]	*	*k[b-]	*
*d:	*	*d:	*	*d:	*	*d:	*	*d:	*	*d:	*
*M2/1	*	*M2/1	*	*M2/1	*	*M2/1	*	*M2/1	*	*M2/1	*
*met(C)	*	*met(C)	*	*met(C)	*	*met(C)	*	*met(C)	*	*met(C)	*
=1-	=1-	=1-	=1-	=1-	=1-	=1-	=1-	=1-	=1-	=1-	=1-
!	!	!	!	!	!	!	!	!LO:TX:a:t=Seconda parte	!	!	!
!LO:TX:a:t=Seconda parte	!	!	!	!LO:TX:t=P:problem:podwójnie zapisany znak przykluczowy, kolejno: BB- B-	!	!LO:TX:a:t=Seconda parte	!	!LO:TX:t=P:problem:podwójnie zapisany znak przykluczowy, kolejno: B- b-	!	!	!
2r	.	2r	.	2r	.	2.e\	SO-	2r	.	2r	.
2e\	SO-	2cc#X\	SO-	2A\	SO-	.	.	2a\	SO-	2ee\	SO-
.	.	.	.	.	.	4.A/	-nar	.	.	.	.
4.d\	-nar	4.dd\	-nar	4.D/	-nar	.	.	4.a\	-nar	4.ff#X\	-nar
.	.	.	.	.	.	8A/	le	.	.	.	.
.	.	.	.	.	.	4.d\	lab-	.	.	.	.
8A/	le	8dd\	le	8D/	le	.	.	8a\	le	8ff#\	le
!LO:N:acc=#	!	!	!	!	!	!	!	!	!	!	!
4.Bn/	lab-	4.dd\	lab-	4.G\	lab-	.	.	4.g\	lab-	4.gg\	lab-
.	.	.	.	.	.	8d\	-ra e	.	.	.	.
.	.	.	.	.	.	4.G/	vi	.	.	.	.
8B/	-ra e	8dd\	-ra e	8G\	-ra e	.	.	8g\	-ra	8gg\	-ra
=2-	=2-	=2-	=2-	=2-	=2-	=2-	=2-	=2-	=2-	=2-	=2-
4.c/	vi	4.ee\	vi	4.C/	vi	.	.	4.g\	e vi	4.gg\	e vi
.	.	.	.	.	.	8G/	reſ-	.	.	.	.
.	.	.	.	.	.	4.c/	-ta-	.	.	.	.
8c/	reſ-	8ee\	reſ-	8C/	reſ-	.	.	8g\	reſ-	8gg\	reſ-
4.A/	-ta-	4.ff\	-ta-	4.F/	-ta-	.	.	4.a\	-ta-	4.cc\	-ta-
.	.	.	.	.	.	8c/	-ro i	.	.	.	.
.	.	.	.	.	.	4.F/	ſeg-	.	.	.	.
8A/	-ro i	8ff\	-ro i	8F/	-ro i	.	.	8a\	-ro i	8cc\	-ro i
4.B-y/	ſeg-	4.ff\	ſeg-	4.BB-/	ſeg-	.	.	4.f\	ſeg-	4.dd\	ſeg-
.	.	.	.	.	.	8F/	-ni	.	.	.	.
.	.	.	.	.	.	2B-/	Di	.	.	.	.
8B-/	-ni	8ff\	-ni	8BB-/	-ni	.	.	8f\	-ni	8dd\	-ni
2G/	Di	2b-/	Di	2E-X/	Di	.	.	2g\	Di	2ee-X\	Di
.	.	.	.	.	.	4.G/	col-	.	.	.	.
=3-	=3-	=3-	=3-	=3-	=3-	=3-	=3-	=3-	=3-	=3-	=3-
4.c/	col-	4.ccny\	col-	4.C/	col-	.	.	4.g\	col-	4.ee-X\	col-
.	.	.	.	.	.	8G/	-pi	.	.	.	.
.	.	.	.	.	.	4.g\	im-	.	.	.	.
8c/	-pi im-	8ee-X\	-pi im im-	8C/	-pi im-	.	.	8g\	-pi im	8cc\	-pi im
!	!	!	!	!	!	!	!	!	!	!LO:N:acc=#	!
2d\	-preſ-	2dd\	-preſ-	2G\	-preſ-	.	.	2g\	-preſ-	2bn/	-preſ-
.	.	.	.	.	.	16f\	-preſ-	.	.	.	.
.	.	.	.	.	.	16e\	.	.	.	.	.
.	.	.	.	.	.	4d\	.	.	.	.	.
*custos:c	*	*custos:ee	*	*custos:C	*	*custos:g	*	*custos:e	*	*	*
!LO:LB:g=original	!	!LO:LB:g=original	!	!LO:LB:g=original	!	!LO:LB:g=original	!	!LO:LB:g=original	!	!	!
1c	-ſi	1eeny	-ſi	2C/	-ſi	1g	-ſi	1e	-ſi	1cc	-ſi
.	.	.	.	4r	.	.	.	.	.	.	.
.	.	.	.	4C/	A-	.	.	.	.	.	.
=4-	=4-	=4-	=4-	=4-	=4-	=4-	=4-	=4-	=4-	=4-	=4-
2r	.	2r	.	1F	-mor	00r	.	2r	.	2r	.
2F/	A-	2ff\	A-	.	.	.	.	2a\	A-	2cc\	A-
*	*	*	*	*	*	*	*	*	*	*custos:dd	*
!	!	!	!	!	!	!	!	!	!	!LO:LB:g=original	!
1B-	-mor	1ff	-mor	1r	.	.	.	1b-	-mor	1dd	-mor
=5-	=5-	=5-	=5-	=5-	=5-	=5-	=5-	=5-	=5-	=5-	=5-
2r	.	2r	.	00r	.	.	.	2r	.	2r	.
1e-X	deh	1b-	deh	.	.	.	.	1g	deh	1ee-X	deh
4.B-/	per-	4.b-/	per-	.	.	.	.	4.f\	per-	4.dd\	per-
8c/	-che à	8g/	-che à	.	.	.	.	8e/	-che a	8cc\	-che à
=6-	=6-	=6-	=6-	=6-	=6-	=6-	=6-	=6-	=6-	=6-	=6-
4G/	vo-	4g/	vo-	.	.	00r	.	4d/	vo-	4b-y/	vo-
8G/	-to	8g/	-to	.	.	.	.	8d/	-to	8b-/	-to
8D/	Tá(n)-	8f#X/	Tã(n)-	.	.	.	.	8d/	Tan-	8a/	Tã(n)-
4G/	-t`ar-	4g/	-t`ar-	.	.	.	.	4d/	-t`ar-	4b-/	-t`ar-
4F/	-me e	4a/	-me e	.	.	.	.	4f\	-me e	4cc\	-me e
4.B-/	tai	4.b-/	tai	.	.	.	.	4.f\	tai	4.dd\	tai
8B-/	per-	8b-/	per-	.	.	.	.	8f\	per-	8dd\	per-
4B-/	-coſ-	4b-/	-coſ-	.	.	.	.	4f\	-coſ-	4dd\	-coſ-
4G/	-ſe u-	4b-/	-ſe u-	.	.	.	.	4g\	-ſe u-	4dd\	-ſe
=7-	=7-	=7-	=7-	=7-	=7-	=7-	=7-	=7-	=7-	=7-	=7-
4d\	-ſar	2.a/	-ſar	0r	.	.	.	4f\	-ſar	2dd\	uſar
4eny\	da	.	.	.	.	.	.	4g\	da	.	.
4f\	ſcher-	.	.	.	.	.	.	4a\	ſcher-	1cc	da
!	!	!LO:N:acc=#	!	!	!	!	!	!	!	!	!
8e\	.	4bn/	da	.	.	.	.	8g\	.	.	.
8d\	.	.	.	.	.	.	.	8f\	.	.	.
*	*	*	*	*	*	*	*	*custos:e	*	*	*
!	!	!	!	!	!	!	!	!LO:LB:g=original	!	!	!
1c	.	4cc\	ſcher-	.	.	.	.	4e/	.	.	.
.	.	8b/	.	.	.	.	.	2f\	.	.	.
.	.	8a/	.	.	.	.	.	.	.	.	.
.	.	2g/	.	.	.	.	.	.	.	2cc\	ſcher-
.	.	.	.	.	.	.	.	4e/	.	.	.
*custos:F	*	*	*	*	*	*	*	*	*	*	*
!LO:LB:g=original	!	!	!	!	!	!	!	!	!	!	!
=8-	=8-	=8-	=8-	=8-	=8-	=8-	=8-	=8-	=8-	=8-	=8-
1F	-zo	1a	-zo	1r	.	1r	.	1f	-zo	1cc	-zo
=9-	=9-	=9-	=9-	=9-	=9-	=9-	=9-	=9-	=9-	=9-	=9-
*M3/2	*	*M3/2	*	*M3/2	*	*M3/2	*	*M3/2	*	*M3/2	*
2.B-/	Pro-	2.b-y/	Pro-	2.BB-/	Pro-	2.d\	Pro-	2.f\	Pro-	2.dd\	Pro-
4B-/	-uin-	4b-/	-uin-	4BB-/	-uin-	4d\	-uin-	4f\	-uin-	4dd\	-uin-
2B-/	-ſi in	2dd\	-ſi in	2BB-/	-ſi in	2d\	-ſi in	2b-\	-ſi in	2ffny\	-ſi in
=10-	=10-	=10-	=10-	=10-	=10-	=10-	=10-	=10-	=10-	=10-	=10-
1c	ve-	1cc	ve-	1F	ve-	1f	ve-	1a	ve-	1ff	ve-
2G/	-ra	2b-/	-ra	2G\	-ra	2B-/	-ra	2g\	-ra	2dd\	-ra
*	*	*	*	*	*	*	*	*	*	*custos:dd	*
!	!	!	!	!	!	!	!	!	!	!LO:LB:g=original	!
=11-	=11-	=11-	=11-	=11-	=11-	=11-	=11-	=11-	=11-	=11-	=11-
1A	pug-	1a	pug-	1D	pug-	1d	pug-	1f#X	pug-	1dd	pug-
2A/	-na	2a/	-na	2D/	-na	2d\	-na	2f#\	-na	2dd\	-na
=12-	=12-	=12-	=12-	=12-	=12-	=12-	=12-	=12-	=12-	=12-	=12-
2.d\	Pro-	2.ff\	Pro-	2.BB-/	Pro-	2.f\	Pro-	2r	.	2.dd\	Pro-
.	.	.	.	.	.	.	.	2.b-\	Pro-	.	.
4d\	-uin-	4ff\	-uin-	4BB-/	-uin-	4f\	-uin-	.	.	4dd\	-uin-
2d\	-ſi in	2ff\	-ſi in	2BB-/	-ſi in	2B-/	-ſi in	.	.	2dd\	-ſi in
.	.	.	.	.	.	.	.	4b-\	-uin-	.	.
=13-	=13-	=13-	=13-	=13-	=13-	=13-	=13-	=13-	=13-	=13-	=13-
1f	ve-	1ff	ve-	1F	ve-	1c	ve-	2a\	-ſi in	1cc	ve-
.	.	.	.	.	.	.	.	2a\	ve-	.	.
2B-/	-ra	2dd\	-ra	2G\	-ra	2G/	-ra	2g\	-ra	2b-/	-ra
=14-	=14-	=14-	=14-	=14-	=14-	=14-	=14-	=14-	=14-	=14-	=14-
*M2/1	*	*M2/1	*	*M2/1	*	*M2/1	*	*M2/1	*	*M2/1	*
*met(C)	*	*met(C)	*	*met(C)	*	*met(C)	*	*met(C)	*	*met(C)	*
2d\	pug-	2dd\	pug-	2D/	pug-	2A/	pug-	2f#X\	pug-	2a/	pug-
2A/	-na	2dd\	-na	2D/	-na e	2d\	-na e	2f#\	-na e	2a/	-na e
*	*	*	*	*custos:G	*	*custos:d	*	*custos:g	*	*	*
!	!	!	!	!LO:LB:g=original	!	!	!	!LO:LB:g=original	!	!	!
1r	.	1r	.	4.G\	non	4.d\	non	4.g\	non	4.b-/	nõ(n)
.	.	.	.	8B-\	ſi	8d\	ſi	8d/	ſi	8g/	ſi
.	.	.	.	4A\	ſde-	4c#X/	ſde-	4e/	ſde-	4a/	ſde-
.	.	.	.	4A\	-gni	4c#/	-gni	4e/	-gni	4a/	-gni
=15-	=15-	=15-	=15-	=15-	=15-	=15-	=15-	=15-	=15-	=15-	=15-
4r	.	4.dd\	Scõ(n)-	1r	.	1r	.	1r	.	1r	.
4.d\	Scõ(n)-	.	.	.	.	.	.	.	.	.	.
.	.	8cc\	-tro	.	.	.	.	.	.	.	.
.	.	2b-/	d`a-	.	.	.	.	.	.	.	.
8d\	-tro	.	.	.	.	.	.	.	.	.	.
4e\	d`a-	.	.	.	.	.	.	.	.	.	.
*custos:f#	*	*	*	*	*	*	*	*	*	*	*
!LO:LB:g=original	!	!	!	!	!	!	!	!	!	!	!
2f#X\	-man-	2a/	-man-	4r	.	4r	.	4r	.	4r	.
.	.	.	.	4D/	e	4d\	e	4d/	e	4a/	e
2g\	-te	2g/	-te	4.G\	non	4.B-/	non	4.d/	non	4.b-/	non
.	.	.	.	8B-\	ſi	8d\	ſi	8d/	ſi	8g/	ſi
*	*	*custos:dd	*	*	*	*	*	*	*	*	*
!	!	!LO:LB:g=original	!	!	!	!	!	!	!	!	!
=16-	=16-	=16-	=16-	=16-	=16-	=16-	=16-	=16-	=16-	=16-	=16-
1r	.	1r	.	4A\	ſde-	4c#X/	ſde-	4e/	ſde-	4a/	ſde-
.	.	.	.	4A\	-gni	4c#/	-gni	4e/	-gni	4a/	-gni
.	.	.	.	4r	.	4r	.	2r	.	4.dd\	Scõ(n)-
.	.	.	.	4.B-\	Scon-	4.d\	Scõ(n)-	.	.	.	.
.	.	.	.	.	.	.	.	.	.	8cc\	-tro
2r	.	2r	.	.	.	.	.	1r	.	2b-/	d`a-
.	.	.	.	8B-\	-tro	8d\	-tro	.	.	.	.
.	.	.	.	4c\	d`a-	4e\	d`a-	.	.	.	.
4r	.	4.dd\	Scon-	2d\	-man-	2f#X\	-man-	.	.	2a/	-man-
4.d\	Scon-	.	.	.	.	.	.	.	.	.	.
.	.	8cc\	-tro	.	.	.	.	.	.	.	.
*	*	*	*	*	*	*	*	*	*	*custos:g	*
!	!	!	!	!	!	!	!	!	!	!LO:LB:g=original	!
=17-	=17-	=17-	=17-	=17-	=17-	=17-	=17-	=17-	=17-	=17-	=17-
.	.	2b-/	d`a-	2G\	-te	2g\	-te	1r	.	2g/	-te
8d\	-tro	.	.	.	.	.	.	.	.	.	.
4e\	d`a-	.	.	.	.	.	.	.	.	.	.
2f#X\	-man-	2a/	-man-	2r	.	1r	.	.	.	2r	.
2g\	-te	2g/	-te	1r	.	.	.	4r	.	4.gg\	Scon-
.	.	.	.	.	.	.	.	4.g\	Scõ(n)-	.	.
.	.	.	.	.	.	.	.	.	.	8ff\	-tro
2r	.	2r	.	.	.	2r	.	.	.	2eeny\	d`a-
.	.	.	.	.	.	.	.	8g\	-tro	.	.
.	.	.	.	.	.	.	.	4a\	d`a-	.	.
=18-	=18-	=18-	=18-	=18-	=18-	=18-	=18-	=18-	=18-	=18-	=18-
!	!	!	!	!	!	!	!	!LO:N:acc=#	!	!	!
4r	.	4r	.	0r	.	4r	.	2bn\	-man-	2dd\	-man-
4g\	e	4dd\	e	.	.	4G/	e	.	.	.	.
4.g\	non	4.ee-X\	non	.	.	4.cny/	non	2cc\	-te	2cc\	-te
8g\	ſi	8cc\	ſi	.	.	8e-X\	ſi	.	.	.	.
*	*	*	*	*	*	*custos:d	*	*	*	*	*
!	!	!	!	!	!	!LO:LB:g=original	!	!	!	!	!
4f#X\	ſde-	4dd\	ſde-	.	.	4d\	ſde-	1r	.	2r	.
4f#\	-gni	4dd\	-gni	.	.	4d\	-gni	.	.	.	.
2r	.	4.gg\	Scon-	.	.	4.c/	Scon-	.	.	4r	.
.	.	.	.	.	.	.	.	.	.	4.g/	Scon-
.	.	8ff\	-tro	.	.	8d\	-tro	.	.	.	.
=19-	=19-	=19-	=19-	=19-	=19-	=19-	=19-	=19-	=19-	=19-	=19-
1r	.	2eeny\	d`a-	1r	.	2eny\	d`a-	1r	.	.	.
.	.	.	.	.	.	.	.	.	.	8g/	-tro
.	.	.	.	.	.	.	.	.	.	4a/	d`a-
!	!	!	!	!	!	!	!	!	!	!LO:N:acc=#	!
.	.	2dd\	-man-	.	.	2g\	-man-	.	.	2bn/	-man-
2r	.	1cc	-te	2r	.	1c	-te	2r	.	2cc\	-te
2c/	A-	.	.	2C/	A-	.	.	2g\	A-	2ee\	A-
=20-	=20-	=20-	=20-	=20-	=20-	=20-	=20-	=20-	=20-	=20-	=20-
0c	mor	2r	.	0F	-mor	2r	.	0a	-mor	1ff	-mor
.	.	2cc\	A-	.	.	2A/	A-	.	.	.	.
.	.	1cc	-mor	.	.	1fny	-mor	.	.	2r	.
.	.	.	.	.	.	.	.	.	.	2cc\	A-
*	*	*	*	*	*	*	*	*custos:f	*	*	*
!	!	!	!	!	!	!	!	!LO:LB:g=original	!	!	!
=21-	=21-	=21-	=21-	=21-	=21-	=21-	=21-	=21-	=21-	=21-	=21-
2r	.	00r	.	2r	.	2r	.	2r	.	1dd	-mor
2B-/	A	.	.	2BB-/	A-	2d\	A-	2fny\	A-	.	.
*custos:B-	*	*	*	*custos:E-	*	*	*	*	*	*	*
!LO:LB:g=original	!	!	!	!LO:LB:g=original	!	!	!	!	!	!	!
2.B-/	-mor	.	.	2.E-X/	-mor	2.e-X\	-mor	2.g\	-mor	1r	.
4B-/	me	.	.	4E-/	me	4e-\	me	4g\	me	.	.
=22-	=22-	=22-	=22-	=22-	=22-	=22-	=22-	=22-	=22-	=22-	=22-
2B-/	tuo	.	.	2E-yX/	tuo	2e-yX\	tuo	2g\	tuo	0r	.
2c/	de-	.	.	2C/	de-	2e-\	de-	2g\	de-	.	.
1A	-uo-	.	.	1D	-uo-	1d	-uo-	1f#X	-uo-	.	.
*	*	*custos:a	*	*	*	*	*	*	*	*	*
!	!	!LO:LB:g=original	!	!	!	!	!	!	!	!	!
=23-	=23-	=23-	=23-	=23-	=23-	=23-	=23-	=23-	=23-	=23-	=23-
4A/	-to	1r	.	4D/	-to	4d\	-to	4f#yX\	-to	1r	.
4A/	Op-	.	.	4D/	Op-	4d\	Op-	4f#\	Op-	.	.
4B-/	-po-	.	.	4G\	-po-	4.d\	-po-	4g\	-po-	.	.
4B-/	-ni a	.	.	4G\	-ni a	.	.	4g\	-ni a	.	.
.	.	.	.	.	.	8eny\	-ni a	.	.	.	.
*	*	*	*	*	*	*custos:f	*	*	*	*	*
!	!	!	!	!	!	!LO:LB:g=original	!	!	!	!	!
2c/	l`u-	2r	.	2F/	l`u-	2f\	l`u-	2a\	l`u-	2r	.
2c/	-na	4r	.	2F/	-na	2f\	-na	2a\	-na	4r	.
.	.	4a/	o	.	.	.	.	.	.	4cc\	o
=24-	=24-	=24-	=24-	=24-	=24-	=24-	=24-	=24-	=24-	=24-	=24-
1r	.	4b-/	fra	00r	.	00r	.	0r	.	4dd\	fra
.	.	4cc\	le	.	.	.	.	.	.	4ee\	le
*	*	*	*	*	*	*	*	*	*	*custos:ff	*
!	!	!	!	!	!	!	!	!	!	!LO:LB:g=original	!
.	.	8dd\	due	.	.	.	.	.	.	8ff\	due
.	.	8cc\	.	.	.	.	.	.	.	8ee\	.
.	.	8b-/	.	.	.	.	.	.	.	8dd\	.
.	.	8a/	.	.	.	.	.	.	.	8cc\	.
1G	fa	4g/	.	.	.	.	.	.	.	4b-y/	.
.	.	4b-/	fa	.	.	.	.	.	.	4dd\	fa
.	.	4.b-/	ter-	.	.	.	.	.	.	4.dd\	ter-
.	.	16a/	.	.	.	.	.	.	.	16cc\	.
.	.	16g/	.	.	.	.	.	.	.	16b-\	.
=25-	=25-	=25-	=25-	=25-	=25-	=25-	=25-	=25-	=25-	=25-	=25-
1d	ter-	4f#X/	.	.	.	.	.	1r	.	4a/	.
.	.	2g/	.	.	.	.	.	.	.	4g/	.
.	.	.	.	.	.	.	.	.	.	2a/	.
.	.	4f#X/	.	.	.	.	.	.	.	.	.
2G/	-zo	2g/	-zo	.	.	.	.	2r	.	2g/	-zo
!	!	!	!	!	!	!	!	!	!	!LO:N:acc=#	!
2G/	A-	2dd\	A-	.	.	.	.	2g\	A-	2bn/	A-
=26-	=26-	=26-	=26-	=26-	=26-	=26-	=26-	=26-	=26-	=26-	=26-
1c	-mor	1ee	-mor	2r	.	2r	.	1g	-mor	1cc	-mor
.	.	.	.	2C/	A-	2c/	A-	.	.	.	.
*	*	*custos:a	*	*	*	*	*	*	*	*	*
!	!	!LO:LB:g=original	!	!	!	!	!	!	!	!	!
2r	.	2r	.	1F	-mor	1c	-mor	2r	.	2r	.
2F/	A-	2a/	A-	.	.	.	.	2fny\	A-	2cc\	A-
=27-	=27-	=27-	=27-	=27-	=27-	=27-	=27-	=27-	=27-	=27-	=27-
2.B-/	-mor	2.b-/	-mor	00r	.	00r	.	2.f\	-mor	2.dd\	-mor
4B-/	me	4b-/	me	.	.	.	.	4f\	me	4dd\	me
*	*	*	*	*	*	*	*	*custos:f	*	*	*
!	!	!	!	!	!	!	!	!LO:LB:g=original	!	!	!
2B-/	tuo	2b-/	tuo	.	.	.	.	2f\	tuo	2dd\	tuo
2G/	de-	2b-/	de-	.	.	.	.	2g\	de-	2dd\	de-
*custos:A	*	*	*	*	*	*	*	*	*	*	*
!LO:LB:g=original	!	!	!	!	!	!	!	!	!	!	!
=28-	=28-	=28-	=28-	=28-	=28-	=28-	=28-	=28-	=28-	=28-	=28-
1A	-uo-	1a	-uo-	.	.	.	.	1e	-uo-	1cc#X	-uo-
*	*	*	*	*	*	*	*	*	*	*custos:cc	*
!	!	!	!	!	!	!	!	!	!	!LO:LB:g=original	!
4A/	-to	4a/	-to	.	.	.	.	4e/	-to	4cc#\	-to
4A/	Op-	4a/	Op-	.	.	.	.	4e/	Op-	4cc#\	Op-
4d\	-po-	4.a/	-po-	.	.	.	.	4f\	-po-	4dd\	-po-
4d\	-ni a	.	.	.	.	.	.	4f\	-ni a	4dd\	-ni a
.	.	8b-/	-ni a	.	.	.	.	.	.	.	.
=29-	=29-	=29-	=29-	=29-	=29-	=29-	=29-	=29-	=29-	=29-	=29-
2c/	l`u-	2cc\	l`u-	0r	.	2r	.	2g\	l`u-	2ee\	l`u-
2c/	-na	2cc\	-na	.	.	4r	.	2g\	-na	2ee\	-na
.	.	.	.	.	.	4e\	o	.	.	.	.
1r	.	1r	.	.	.	4f\	fra	4a\	o	1r	.
.	.	.	.	.	.	4g\	le	4b-y\	fra	.	.
.	.	.	.	.	.	8a\	due	8cc\	le	.	.
.	.	.	.	.	.	8g\	.	8b-\	due	.	.
.	.	.	.	.	.	8f\	.	8a\	.	.	.
.	.	.	.	.	.	8e\	.	8g\	.	.	.
=30-	=30-	=30-	=30-	=30-	=30-	=30-	=30-	=30-	=30-	=30-	=30-
0r	.	1r	.	1D	fa	4d\	.	4f\	.	1r	.
.	.	.	.	.	.	4f\	fa	4a\	fa	.	.
.	.	.	.	.	.	4.f\	ter-	4.a\	ter-	.	.
.	.	.	.	.	.	16e\	.	16g\	.	.	.
.	.	.	.	.	.	16d\	.	16f\	.	.	.
.	.	2r	.	1A	ter-	4c#X/	.	4e/	.	2r	.
.	.	.	.	.	.	2d\	.	4d/	.	.	.
.	.	4r	.	.	.	.	.	2e/	.	4r	.
.	.	4a/	o	.	.	4c#X/	.	.	.	4ee\	o
*	*	*	*	*	*	*custos:d	*	*custos:d	*	*	*
!	!	!	!	!	!	!LO:LB:g=original	!	!LO:LB:g=original	!	!	!
=31-	=31-	=31-	=31-	=31-	=31-	=31-	=31-	=31-	=31-	=31-	=31-
2r	.	4dd\	fra	1D	-zo	2d\	-zo	0d	-zo	4ff\	fra
.	.	4ee\	le	.	.	.	.	.	.	4gg\	le
4r	.	8ff\	due	.	.	4r	.	.	.	8aa\	due
.	.	8ee\	.	.	.	.	.	.	.	8gg\	.
4d\	o	8dd\	.	.	.	4A/	o	.	.	8ff\	.
.	.	8cc\	.	.	.	.	.	.	.	8ee\	.
*	*	*custos:b-	*	*	*	*	*	*	*	*	*
!	!	!LO:LB:g=original	!	!	!	!	!	!	!	!	!
4fny\	fra	4b-/	.	0.D	fa	4d\	fra	.	.	2dd\	.
4g\	le	8a/	.	.	.	4e\	le	.	.	.	.
.	.	8g/	.	.	.	.	.	.	.	.	.
8a\	due	4fny/	.	.	.	8f\	due	.	.	4r	.
8g\	.	.	.	.	.	8e\	.	.	.	.	.
8f\	.	4a/	o	.	.	8d\	.	.	.	4dd\	o
8e\	.	.	.	.	.	8cny\	.	.	.	.	.
=32-	=32-	=32-	=32-	=32-	=32-	=32-	=32-	=32-	=32-	=32-	=32-
1d	.	4dd\	fra	.	.	4B-/	.	2r	.	4ff\	fra
.	.	4ee\	le	.	.	8A/	.	.	.	4gg\	le
.	.	.	.	.	.	8G/	.	.	.	.	.
.	.	8ff\	due	.	.	2F/	.	4r	.	8aa\	due
.	.	8ee\	.	.	.	.	.	.	.	8gg\	.
.	.	8dd\	.	.	.	.	.	4d/	o	8ff\	.
.	.	8cc\	.	.	.	.	.	.	.	8ee\	.
*	*	*	*	*	*	*	*	*	*	*custos:dd	*
!	!	!	!	!	!	!	!	!	!	!LO:LB:g=original	!
2r	.	4b-/	.	.	.	4r	.	4.f\	fra	4dd\	.
.	.	8a/	.	.	.	4f\	o	.	.	4ff\	fa
.	.	8g/	.	.	.	.	.	8g\	le	.	.
2A/	fa	4f/	.	.	.	4d\	fra	4.a\	due	4.ff\	ter-
.	.	4a/	fa	.	.	4d\	le	.	.	.	.
.	.	.	.	.	.	.	.	16g\	.	16ee\	.
.	.	.	.	.	.	.	.	16f\	.	16dd\	.
=33-	=33-	=33-	=33-	=33-	=33-	=33-	=33-	=33-	=33-	=33-	=33-
1A	ter-	1a	ter-	1A	ter-	4e\	due	4e/	.	4cc#X\	.
.	.	.	.	.	.	4f\	fa	4d/	fa	2dd\	.
.	.	.	.	.	.	2e\	ter-	2e/	ter-	.	.
.	.	.	.	.	.	.	.	.	.	4cc#X\	.
!LO:N:vis=00	!	!LO:N:vis=00	!	!LO:N:vis=00	!	!LO:N:vis=00	!	!LO:N:vis=00	!	!LO:N:vis=00	!
0.A	-zo.	0.a	-zo.	0.D	-zo.	0.d	-zo,	0.f#X	-zo,	0.dd	-zo.
===	==	==	==	==	==	==	==	==	==	==	==
*-	*-	*-	*-	*-	*-	*-	*-	*-	*-	*-	*-
!!!system-decoration: [(s1,s2,s3,s4,s5,s6)]
!!!ENC: Filip Voros
!!!END: 2022-06-14
!!!ENC: Jan Barakat
!!!END: 2022-07-23
